X: 1
T: The Lads Of Laois
R: reel
M: 4/4
L: 1/8
K: Emin
|:EB,B,2 EGFE| DA, A,2 DEFD| E2 FD EFGA|B2 e^c d^cBA|EB,B,2 EGFE|DA, A,2 DEFD| E2 BE dEBE| DEFA BE E2:||:eBB2 egfe| defa gfed| Bdef gfea| afdf gfed|eBB2 GBFA| EBBA Bdef|g2ge f2fd| efed BAFD:|


Tune 58	Setting 12499

